packages/astro-components-stencil/src/icons/my-location.svg

<svg xmlns="http://www.w3.org/2000/svg" viewBox="0 0 24 24"><g xmlns="http://www.w3.org/2000/svg" id="my-location" fill-rule="nonzero">
            <path d="M12 8c-2.21 0-4 1.79-4 4s1.79 4 4 4 4-1.79 4-4-1.79-4-4-4zm8.94 3A8.994 8.994 0 0013 3.06V2c0-.55-.45-1-1-1s-1 .45-1 1v1.06A8.994 8.994 0 003.06 11H2c-.55 0-1 .45-1 1s.45 1 1 1h1.06A8.994 8.994 0 0011 20.94V22c0 .55.45 1 1 1s1-.45 1-1v-1.06A8.994 8.994 0 0020.94 13H22c.55 0 1-.45 1-1s-.45-1-1-1h-1.06zM12 19c-3.87 0-7-3.13-7-7s3.13-7 7-7 7 3.13 7 7-3.13 7-7 7z"/>
        </g></svg>

<svg width="24" height="24" viewBox="0 0 24 24" fill="none" xmlns="http://www.w3.org/2000/svg">
<path fill-rule="evenodd" clip-rule="evenodd" d="M20.94 11C20.48 6.83 17.17 3.52 13 3.06V2C13 1.45 12.55 1 12 1C11.45 1 11 1.45 11 2V3.06C6.83 3.52 3.52 6.83 3.06 11H2C1.45 11 1 11.45 1 12C1 12.55 1.45 13 2 13H3.06C3.52 17.17 6.83 20.48 11 20.94V22C11 22.55 11.45 23 12 23C12.55 23 13 22.55 13 22V20.94C17.17 20.48 20.48 17.17 20.94 13H22C22.55 13 23 12.55 23 12C23 11.45 22.55 11 22 11H20.94ZM12 8C9.79 8 8 9.79 8 12C8 14.21 9.79 16 12 16C14.21 16 16 14.21 16 12C16 9.79 14.21 8 12 8ZM5 12C5 15.87 8.13 19 12 19C15.87 19 19 15.87 19 12C19 8.13 15.87 5 12 5C8.13 5 5 8.13 5 12Z" fill="black"/>
</svg>
